mockup/templates/main/build/images/GROHE SafeStop.svg

<svg xmlns="http://www.w3.org/2000/svg" width="48" height="48" viewBox="0 0 48 48">
  <g fill="none" fill-rule="evenodd">
    <rect width="48" height="48" fill="#132D52" rx="8"/>
    <path fill="#FFF" d="M11.1215398 38.483185C11.1215398 38.1581693 11.3246746 37.9387837 11.6117718 37.9387837 11.8609505 37.9387837 12.0261668 38.0769154 12.0613768 38.3071348 12.2997216 38.0498307 12.611195 37.8981567 12.9714207 37.8981567 13.3803987 37.8981567 13.7270821 38.06879 13.9870947 38.3965141 14.2552326 38.0850408 14.6831699 37.8981567 15.016311 37.8981567 15.8125994 37.8981567 16.3597091 38.3613041 16.3597091 39.2171787L16.3597091 41.0941442C16.3597091 41.4218683 16.1511574 41.6385455 15.8667687 41.6385455 15.5823799 41.6385455 15.3792451 41.4218683 15.3792451 41.0941442L15.3792451 39.3878119C15.3792451 38.9923762 15.1598596 38.7134044 14.8077592 38.7134044 14.4475335 38.7134044 14.228148 38.9923762 14.228148 39.3878119L14.228148 41.0941442C14.228148 41.4218683 14.0250132 41.6385455 13.7406245 41.6385455 13.4535273 41.6385455 13.2503925 41.4218683 13.2503925 41.0941442L13.2503925 39.3878119C13.2503925 38.9923762 13.0337154 38.7134044 12.6789066 38.7134044 12.2780539 38.7134044 12.0992953 38.9923762 12.0992953 39.3878119L12.0992953 41.0941442C12.0992953 41.4218683 11.8961605 41.6385455 11.6117718 41.6385455 11.3246746 41.6385455 11.1215398 41.4218683 11.1215398 41.0941442L11.1215398 38.483185zM18.6968426 40.7815875C19.2060339 40.7815875 19.4497956 40.2669793 19.4497956 39.7957066 19.4497956 39.3271423 19.2114508 38.7962834 18.6968426 38.7962834 18.1605668 38.7962834 17.9222219 39.3271423 17.9222219 39.7957066 17.9222219 40.2669793 18.1686922 40.7815875 18.6968426 40.7815875L18.6968426 40.7815875zM20.432968 40.9982646C20.432968 41.2528602 20.432968 41.6374621 19.9616953 41.6374621 19.6745981 41.6374621 19.5608426 41.4830796 19.493131 41.2230671 19.2412439 41.5237066 18.9351875 41.6807975 18.5614194 41.6807975 17.6432502 41.6807975 16.9444665 40.8953429 16.9444665 39.7957066 16.9444665 38.7204464 17.6622094 37.8997818 18.5614194 37.8997818 18.9216451 37.8997818 19.2764539 38.0406219 19.493131 38.3493868 19.5202157 38.111042 19.7233505 37.9377003 19.9616953 37.9377003 20.432968 37.9377003 20.432968 38.3277191 20.432968 38.5796063L20.432968 40.9982646zM22.0082107 39.699827L21.1794207 38.7681154C21.0954583 38.6733191 21.0304552 38.5378959 21.0304552 38.4133066 21.0304552 38.158711 21.2796339 37.9393254 21.531521 37.9393254 21.6913204 37.9393254 21.7915335 38.007037 21.8944552 38.1316263L22.5796966 38.9847925 23.2676464 38.1316263C23.3678596 38.007037 23.4707812 37.9393254 23.6278721 37.9393254 23.8770508 37.9393254 24.1289379 38.158711 24.1289379 38.4133066 24.1289379 38.5378959 24.0612263 38.6733191 23.9826809 38.7681154L23.1511824 39.699827 24.1451887 40.8292564C24.2183172 40.9105103 24.2806119 41.0540589 24.2806119 41.165106 24.2806119 41.4494947 24.082894 41.6390871 23.7957969 41.6390871 23.5791197 41.6390871 23.4924489 41.5442909 23.3895273 41.42241L22.5796966 40.4284038 21.7698658 41.42241C21.6696527 41.5442909 21.5802734 41.6390871 21.3635962 41.6390871 21.0764991 41.6390871 20.8787812 41.4494947 20.8787812 41.165106 20.8787812 41.0540589 20.9383674 40.9105103 21.0169129 40.8292564L22.0082107 39.699827zM29.7343749 37.9198245C29.7343749 38.3450533 29.5529078 38.7215298 29.1764313 38.9598746 29.6666633 39.1846771 30.0079298 39.6396991 30.0079298 40.1759749 30.0079298 40.993931 29.2576853 41.6818809 28.2934721 41.6818809 27.2859235 41.6818809 26.6602683 40.9370533 26.6602683 40.4007774 26.6602683 40.1326395 26.9419486 39.9457555 27.1857103 39.9457555 27.6461492 39.9457555 27.5351022 40.7420439 28.3070144 40.7420439 28.6618232 40.7420439 28.9435034 40.468489 28.9435034 40.1082633 28.9435034 39.1575925 27.7896978 39.8563762 27.7896978 39.0546708 27.7896978 38.3396364 28.7566194 38.8217429 28.7566194 38.06879 28.7566194 37.8087774 28.5724439 37.6110596 28.263679 37.6110596 27.6190646 37.6110596 27.7084439 38.2800502 27.2452966 38.2800502 26.9690332 38.2800502 26.8038169 38.028163 26.8038169 37.7762759 26.8038169 37.2454169 27.5323937 36.673931 28.2853467 36.673931 29.2658107 36.673931 29.7343749 37.3889655 29.7343749 37.9198245M31.8079749 38.0891034C31.8079749 38.3951599 31.9867335 38.6037116 32.2982069 38.6037116 32.6123887 38.6037116 32.7938558 38.3951599 32.7938558 38.0891034 32.7938558 37.7965893 32.6178056 37.5744953 32.2982069 37.5744953 31.9786082 37.5744953 31.8079749 37.7965893 31.8079749 38.0891034M31.6779687 40.0635737C31.6779687 40.4075486 31.8811034 40.7406897 32.2982069 40.7406897 32.6855172 40.7406897 32.9184451 40.4075486 32.9184451 40.0635737 32.9184451 39.6329279 32.6719749 39.3810408 32.2982069 39.3810408 31.9027712 39.3810408 31.6779687 39.6789718 31.6779687 40.0635737M30.6216677 40.1285768C30.6216677 39.5841755 30.9168903 39.1833229 31.3448276 38.950395 31.0279373 38.7174671 30.8302194 38.4087022 30.8302194 37.9807649 30.8302194 37.1844765 31.4883762 36.6752853 32.2982069 36.6752853 33.0890784 36.6752853 33.7743197 37.1763511 33.7743197 37.9807649 33.7743197 38.3626583 33.5820188 38.7391348 33.2488777 38.950395 33.7120251 39.1833229 33.9774545 39.6058433 33.9774545 40.1285768 33.9774545 41.0765392 33.2109592 41.6778182 32.2982069 41.6778182 31.3610784 41.6778182 30.6216677 41.0413292 30.6216677 40.1285768M35.7807498 38.3323235C36.0840978 38.3323235 36.3441103 38.0750194 36.3441103 37.768963 36.3441103 37.4629066 36.0840978 37.202894 35.7807498 37.202894 35.4746934 37.202894 35.2146809 37.4629066 35.2146809 37.768963 35.2146809 38.0750194 35.4746934 38.3323235 35.7807498 38.3323235M35.7807498 36.6747436C36.3847373 36.6747436 36.8749693 37.1622671 36.8749693 37.768963 36.8749693 38.3756589 36.3847373 38.8631824 35.7807498 38.8631824 35.1740539 38.8631824 34.6865304 38.3756589 34.6865304 37.768963 34.6865304 37.1622671 35.1740539 36.6747436 35.7807498 36.6747436M23.121931 7C15.3215549 7 9 13.3215549 9 21.121931 9 24.093116 9.68253292 27.8578809 13.5556364 31.0132414 13.7425204 31.1297053 13.9158621 31.1892915 14.0052414 31.0890784 14.0892038 30.9807398 14.0377429 30.8724013 13.9673229 30.7911473 13.9023197 30.7369781 13.8237743 30.6638495 13.7371034 30.5825956 13.7046019 30.555511 13.6748088 30.5284263 13.6395987 30.4959248 12.4722508 29.3908715 9.95337931 26.4873981 9.94254545 21.9967649 9.94254545 15.1253918 15.5111473 9.5540815 22.3825204 9.5540815 25.9549843 9.5540815 29.169931 11.0735298 31.4369154 13.4867712L33.7282759 11.3254169C30.9087649 8.64945455 27.1331661 7 23.121931 7"/>
    <path fill="#FFF" d="M28.6843034,16.9663348 L28.5922157,17.0502972 C28.5840903,17.061131 28.5759649,17.0692564 28.5759649,17.0692564 L28.5786734,17.0638395 L25.9758395,19.4933317 C25.7266608,19.7235511 25.3393505,19.7100088 25.1064226,19.4608301 C24.8762031,19.2116514 24.8897455,18.8270495 25.1362157,18.5941216 L27.9394759,15.9804539 C28.045106,15.8558646 28.1859461,15.6175197 28.0071875,15.3656326 C27.4465354,14.8591498 26.8127549,14.4095448 26.1031373,14.0547361 C21.921269,11.9502596 16.8293567,13.6430495 14.7302972,17.8249179 C12.6312376,22.0094947 14.3213191,27.1014069 18.5058959,29.2004665 C22.6877643,31.2968176 27.7796765,29.6067361 29.8787361,25.4221592 C31.2790119,22.6297329 30.9837893,19.4337455 29.3912125,16.9934194 C29.1068238,16.7009053 28.833269,16.8444539 28.6843034,16.9663348"/>
    <path fill="#B4C0D0" d="M38.5076313,21.1056803 C38.1853241,17.2461191 36.3598194,13.8036614 33.6811486,11.279373 L33.3344652,10.9624828 C33.3344652,10.9624828 31.3464527,12.820489 31.0485216,13.0967524 C31.2056125,13.2484263 31.3545781,13.3973918 31.4818759,13.538232 C33.5484339,15.7591724 34.8214119,18.7249404 34.8214119,21.9967649 C34.8214119,25.7831975 32.3648351,28.9412665 32.3648351,28.9412665 C32.2781643,29.0631473 32.1942019,29.1796113 32.1102395,29.2879498 C31.9748163,29.5127524 31.7825154,29.9975674 32.3025404,30.4986332 C32.6844339,30.8832351 33.1909166,31.4005517 33.7299009,31.9395361 C33.7299009,31.9395361 34.3365969,32.5543574 34.8403712,31.9855799 L34.9541266,31.8582821 C34.962252,31.8474483 34.9703774,31.8393229 34.9785028,31.8257806 C35.8831298,30.7532288 36.6712928,29.3421191 36.6712928,29.3421191 C38.0173994,26.7880376 38.7161831,24.2610408 38.5076313,21.1056803"/>
  </g>
</svg>

<svg xmlns="http://www.w3.org/2000/svg" width="48" height="48"><g fill="none" fill-rule="evenodd"><rect width="48" height="48" fill="#132D52" rx="8"/><path fill="#FFF" d="M11.122 38.483c0-.325.203-.544.49-.544.249 0 .414.138.45.368a1.22 1.22 0 0 1 .91-.409c.408 0 .755.17 1.015.499.268-.312.696-.499 1.03-.499.796 0 1.343.463 1.343 1.32v1.876c0 .328-.209.545-.493.545-.285 0-.488-.217-.488-.545v-1.706c0-.396-.22-.675-.571-.675-.36 0-.58.28-.58.675v1.706c0 .328-.203.545-.487.545-.287 0-.49-.217-.49-.545v-1.706c0-.396-.217-.675-.572-.675-.4 0-.58.28-.58.675v1.706c0 .328-.203.545-.487.545-.287 0-.49-.217-.49-.545v-2.61zm7.575 2.299c.509 0 .753-.515.753-.986 0-.469-.239-1-.753-1-.536 0-.775.531-.775 1 0 .471.247.986.775.986zm1.736.216c0 .255 0 .64-.471.64-.287 0-.401-.155-.469-.415-.252.3-.558.458-.932.458-.918 0-1.617-.786-1.617-1.885 0-1.076.718-1.896 1.617-1.896.36 0 .715.14.932.45a.467.467 0 0 1 .469-.412c.471 0 .471.39.471.642v2.418zm1.575-1.298l-.829-.932a.572.572 0 0 1-.149-.355c0-.254.25-.474.502-.474.16 0 .26.068.362.193l.686.853.688-.853c.1-.125.203-.193.36-.193.25 0 .5.22.5.474a.6.6 0 0 1-.145.355l-.832.932.994 1.13a.568.568 0 0 1 .136.335c0 .284-.198.474-.485.474-.217 0-.304-.095-.406-.217l-.81-.994-.81.994c-.1.122-.19.217-.406.217-.288 0-.485-.19-.485-.474a.54.54 0 0 1 .138-.336l.991-1.13zm7.726-1.78c0 .425-.181.802-.558 1.04.49.225.832.68.832 1.216 0 .818-.75 1.506-1.715 1.506-1.007 0-1.633-.745-1.633-1.281 0-.268.282-.455.526-.455.46 0 .35.796 1.121.796a.627.627 0 0 0 .637-.634c0-.95-1.154-.252-1.154-1.053 0-.715.967-.233.967-.986 0-.26-.185-.458-.493-.458-.645 0-.556.67-1.019.67-.276 0-.441-.253-.441-.505 0-.53.728-1.102 1.481-1.102.98 0 1.45.715 1.45 1.246m2.073.17c0 .305.179.514.49.514.314 0 .496-.209.496-.515 0-.292-.176-.515-.496-.515s-.49.223-.49.515m-.13 1.975c0 .344.203.677.62.677.388 0 .62-.333.62-.677 0-.431-.246-.683-.62-.683-.395 0-.62.298-.62.683m-1.056.065c0-.545.295-.946.723-1.179-.317-.233-.515-.541-.515-.97 0-.796.658-1.305 1.468-1.305.791 0 1.476.501 1.476 1.306 0 .382-.192.758-.525.97.463.232.728.655.728 1.178 0 .948-.766 1.549-1.679 1.549-.937 0-1.676-.637-1.676-1.55m5.159-1.796a.572.572 0 0 0 .563-.563.574.574 0 0 0-.563-.566.575.575 0 0 0-.566.566c0 .306.26.563.566.563m0-1.657a1.093 1.093 0 1 1 0 2.188 1.091 1.091 0 0 1-1.094-1.094 1.09 1.09 0 0 1 1.094-1.094M23.12 7C15.322 7 9 13.322 9 21.122c0 2.971.683 6.736 4.556 9.891.187.117.36.176.45.076.083-.108.032-.217-.039-.298a5.782 5.782 0 0 1-.23-.208 2.52 2.52 0 0 1-.097-.087c-1.168-1.105-3.687-4.009-3.697-8.5 0-6.87 5.568-12.442 12.44-12.442 3.572 0 6.787 1.52 9.054 3.933l2.291-2.162C30.908 8.65 27.133 7 23.122 7"/><path fill="#FFF" d="M28.684 16.966l-.092.084a.197.197 0 0 1-.016.02l.003-.006-2.603 2.43a.616.616 0 0 1-.84-.9l2.803-2.614c.106-.124.247-.362.068-.614a8.545 8.545 0 0 0-1.904-1.311c-4.182-2.105-9.274-.412-11.373 3.77a8.474 8.474 0 1 0 15.149 7.597 8.46 8.46 0 0 0-.488-8.429c-.284-.292-.558-.149-.707-.027"/><path fill="#B4C0D0" d="M38.508 21.106c-.323-3.86-2.148-7.302-4.827-9.827l-.347-.317-2.285 2.135a12.373 12.373 0 0 1 3.773 8.9c0 3.786-2.457 6.944-2.457 6.944-.087.122-.17.239-.255.347-.135.225-.327.71.193 1.21.381.385.888.903 1.427 1.442 0 0 .607.614 1.11.046l.114-.128.025-.032c.904-1.073 1.692-2.484 1.692-2.484 1.346-2.554 2.045-5.081 1.837-8.236"/></g></svg>
